app/assets/images/badges/profil-4-plus-blanc.svg

<svg width="20" height="20" viewBox="0 0 20 20" fill="none" xmlns="http://www.w3.org/2000/svg">
<path d="M7.17036 4.33353C7.2837 4.33353 7.39148 4.36797 7.4937 4.43686C7.59592 4.50353 7.67814 4.59464 7.74036 4.7102C7.80259 4.82353 7.8337 4.94797 7.8337 5.08353C7.8337 5.21686 7.80259 5.34131 7.74036 5.45686C7.67814 5.57242 7.59592 5.66464 7.4937 5.73353C7.39148 5.8002 7.2837 5.83353 7.17036 5.83353H6.59036V6.46353C6.59036 6.52353 6.57259 6.57242 6.53703 6.61019C6.50148 6.64797 6.45481 6.66686 6.39703 6.66686C6.34148 6.66686 6.29592 6.64797 6.26036 6.61019C6.22481 6.57019 6.20703 6.52131 6.20703 6.46353V4.53686C6.20703 4.47908 6.22592 4.43131 6.2637 4.39353C6.3037 4.35353 6.35259 4.33353 6.41036 4.33353H7.17036ZM7.17036 5.45353C7.21259 5.45353 7.2537 5.43575 7.2937 5.4002C7.33592 5.36464 7.36925 5.31908 7.3937 5.26353C7.42036 5.20575 7.4337 5.14575 7.4337 5.08353C7.4337 5.02131 7.42036 4.96242 7.3937 4.90686C7.36925 4.84908 7.33592 4.80353 7.2937 4.7702C7.2537 4.73464 7.21259 4.71686 7.17036 4.71686H6.59036V5.45353H7.17036Z" fill="#FBF9FA"/>
<path d="M9.10883 4.8502C9.1755 4.8502 9.23105 4.86908 9.2755 4.90686C9.32216 4.94464 9.34549 4.98908 9.34549 5.0402C9.34549 5.10908 9.32772 5.16131 9.29216 5.19686C9.25661 5.2302 9.21438 5.24686 9.16549 5.24686C9.13216 5.24686 9.09438 5.23908 9.05216 5.22353C9.04549 5.22131 9.02994 5.21686 9.0055 5.2102C8.98327 5.20353 8.95883 5.2002 8.93216 5.2002C8.87438 5.2002 8.81883 5.21797 8.7655 5.25353C8.71216 5.28908 8.66772 5.34353 8.63216 5.41686C8.59883 5.48797 8.58216 5.57353 8.58216 5.67353V6.46353C8.58216 6.52131 8.56327 6.57019 8.52549 6.61019C8.48772 6.64797 8.43994 6.66686 8.38216 6.66686C8.32438 6.66686 8.27661 6.64797 8.23883 6.61019C8.20105 6.57019 8.18216 6.52131 8.18216 6.46353V5.08686C8.18216 5.02908 8.20105 4.98131 8.23883 4.94353C8.27661 4.90353 8.32438 4.88353 8.38216 4.88353C8.43994 4.88353 8.48772 4.90353 8.52549 4.94353C8.56327 4.98131 8.58216 5.02908 8.58216 5.08686V5.1302C8.63327 5.03908 8.70661 4.9702 8.80216 4.92353C8.89772 4.87464 8.99994 4.8502 9.10883 4.8502Z" fill="#FBF9FA"/>
<path d="M11.2659 5.77686C11.2659 5.95464 11.2259 6.11464 11.1459 6.25686C11.0659 6.39686 10.9559 6.50575 10.8159 6.58353C10.6782 6.66131 10.5259 6.70019 10.3593 6.70019C10.1904 6.70019 10.037 6.66131 9.89927 6.58353C9.76149 6.50575 9.6526 6.39686 9.5726 6.25686C9.4926 6.11464 9.4526 5.95464 9.4526 5.77686C9.4526 5.59908 9.4926 5.4402 9.5726 5.3002C9.6526 5.15797 9.76149 5.04797 9.89927 4.9702C10.037 4.8902 10.1904 4.8502 10.3593 4.8502C10.5259 4.8502 10.6782 4.8902 10.8159 4.9702C10.9559 5.04797 11.0659 5.15797 11.1459 5.3002C11.2259 5.4402 11.2659 5.59908 11.2659 5.77686ZM10.8659 5.77686C10.8659 5.66797 10.8426 5.57131 10.7959 5.48686C10.7515 5.4002 10.6904 5.33353 10.6126 5.28686C10.537 5.2402 10.4526 5.21686 10.3593 5.21686C10.2659 5.21686 10.1804 5.2402 10.1026 5.28686C10.027 5.33353 9.96594 5.4002 9.91927 5.48686C9.87483 5.57131 9.8526 5.66797 9.8526 5.77686C9.8526 5.88575 9.87483 5.98242 9.91927 6.06686C9.96594 6.15131 10.027 6.21686 10.1026 6.26353C10.1804 6.31019 10.2659 6.33353 10.3593 6.33353C10.4526 6.33353 10.537 6.31019 10.6126 6.26353C10.6904 6.21686 10.7515 6.15131 10.7959 6.06686C10.8426 5.98242 10.8659 5.88575 10.8659 5.77686Z" fill="#FBF9FA"/>
<path d="M12.4568 4.55353C12.3812 4.55353 12.3279 4.57575 12.2968 4.6202C12.2657 4.66242 12.2501 4.70908 12.2501 4.7602V4.91686H12.5535C12.6068 4.91686 12.6512 4.93464 12.6868 4.9702C12.7224 5.00353 12.7401 5.04686 12.7401 5.1002C12.7401 5.15353 12.7224 5.19797 12.6868 5.23353C12.6512 5.26686 12.6068 5.28353 12.5535 5.28353H12.2501V6.46353C12.2501 6.52131 12.2312 6.57019 12.1935 6.61019C12.1557 6.64797 12.1079 6.66686 12.0501 6.66686C11.9924 6.66686 11.9446 6.64797 11.9068 6.61019C11.869 6.57019 11.8501 6.52131 11.8501 6.46353V5.28353H11.6701C11.6168 5.28353 11.5724 5.26686 11.5368 5.23353C11.5012 5.19797 11.4835 5.15353 11.4835 5.1002C11.4835 5.04686 11.5012 5.00353 11.5368 4.9702C11.5724 4.93464 11.6168 4.91686 11.6701 4.91686H11.8501V4.76353C11.8501 4.59686 11.9068 4.46131 12.0201 4.35686C12.1357 4.25242 12.3012 4.2002 12.5168 4.2002C12.599 4.2002 12.6701 4.21686 12.7301 4.2502C12.7924 4.28353 12.8235 4.33464 12.8235 4.40353C12.8235 4.45686 12.8079 4.5002 12.7768 4.53353C12.7457 4.56686 12.7079 4.58353 12.6635 4.58353C12.6524 4.58353 12.6401 4.58242 12.6268 4.5802C12.6157 4.57797 12.6035 4.57575 12.5901 4.57353C12.5368 4.5602 12.4924 4.55353 12.4568 4.55353ZM13.3668 6.46353C13.3668 6.52131 13.3479 6.57019 13.3101 6.61019C13.2724 6.64797 13.2246 6.66686 13.1668 6.66686C13.109 6.66686 13.0612 6.64797 13.0235 6.61019C12.9857 6.57019 12.9668 6.52131 12.9668 6.46353V5.08686C12.9668 5.02908 12.9857 4.98131 13.0235 4.94353C13.0612 4.90353 13.109 4.88353 13.1668 4.88353C13.2246 4.88353 13.2724 4.90353 13.3101 4.94353C13.3479 4.98131 13.3668 5.02908 13.3668 5.08686V6.46353ZM13.1635 4.66686C13.0879 4.66686 13.0346 4.65464 13.0035 4.6302C12.9724 4.60575 12.9568 4.56242 12.9568 4.5002V4.43686C12.9568 4.37464 12.9735 4.33131 13.0068 4.30686C13.0401 4.28242 13.0935 4.2702 13.1668 4.2702C13.2446 4.2702 13.299 4.28242 13.3301 4.30686C13.3612 4.33131 13.3768 4.37464 13.3768 4.43686V4.5002C13.3768 4.56464 13.3601 4.60908 13.3268 4.63353C13.2957 4.65575 13.2412 4.66686 13.1635 4.66686Z" fill="#FBF9FA"/>
<path d="M14.2112 6.46353C14.2112 6.52131 14.1912 6.57019 14.1512 6.61019C14.1134 6.64797 14.0656 6.66686 14.0079 6.66686C13.9523 6.66686 13.9056 6.64797 13.8679 6.61019C13.8301 6.57019 13.8112 6.52131 13.8112 6.46353V4.40353C13.8112 4.34575 13.8301 4.29797 13.8679 4.2602C13.9079 4.2202 13.9568 4.2002 14.0145 4.2002C14.0701 4.2002 14.1168 4.2202 14.1545 4.2602C14.1923 4.29797 14.2112 4.34575 14.2112 4.40353V6.46353Z" fill="#FBF9FA"/>
<path fill-rule="evenodd" clip-rule="evenodd" d="M10 18.75C14.8325 18.75 18.75 14.8325 18.75 10C18.75 5.16751 14.8325 1.25 10 1.25C5.16751 1.25 1.25 5.16751 1.25 10C1.25 14.8325 5.16751 18.75 10 18.75ZM10 20C15.5228 20 20 15.5228 20 10C20 4.47715 15.5228 0 10 0C4.47715 0 0 4.47715 0 10C0 15.5228 4.47715 20 10 20Z" fill="#FBF9FA"/>
<path d="M11.0741 12.792C11.2141 12.792 11.3308 12.8387 11.4241 12.932C11.5175 13.0253 11.5641 13.142 11.5641 13.282C11.5641 13.4162 11.5175 13.5299 11.4241 13.6232C11.3308 13.7107 11.2141 13.7545 11.0741 13.7545H10.7066V14.8832C10.7066 15.0349 10.6541 15.1632 10.5491 15.2682C10.45 15.3674 10.3245 15.417 10.1729 15.417C10.027 15.417 9.90455 15.3674 9.80538 15.2682C9.70621 15.1632 9.65663 15.0349 9.65663 14.8832V13.7545H7.38163C7.2533 13.7545 7.13371 13.7049 7.02288 13.6057C6.91205 13.5007 6.85663 13.3782 6.85663 13.2382C6.85663 13.1099 6.90038 12.9932 6.98788 12.8882L9.75288 9.50199C9.86371 9.36199 10.0095 9.29199 10.1904 9.29199C10.3362 9.29199 10.4587 9.34449 10.5579 9.44949C10.657 9.54866 10.7066 9.67408 10.7066 9.82574V12.792H11.0741ZM9.65663 12.792V11.042L8.23913 12.792H9.65663Z" fill="#FBF9FA"/>
<path d="M14.3429 10.1666C14.4496 10.1666 14.5385 10.2021 14.6096 10.2732C14.6807 10.3399 14.7163 10.4266 14.7163 10.5332C14.7163 10.6399 14.6807 10.7288 14.6096 10.7999C14.5385 10.8666 14.4496 10.8999 14.3429 10.8999H13.4096V11.7732C13.4096 11.8977 13.3674 11.9999 13.2829 12.0799C13.2029 12.1599 13.1007 12.1999 12.9763 12.1999C12.8518 12.1999 12.7474 12.1599 12.6629 12.0799C12.5829 11.9999 12.5429 11.8977 12.5429 11.7732V10.8999H11.6296C11.5229 10.8999 11.434 10.8644 11.3629 10.7932C11.2918 10.7221 11.2563 10.6332 11.2563 10.5266C11.2563 10.4199 11.2918 10.3332 11.3629 10.2666C11.434 10.1999 11.5229 10.1666 11.6296 10.1666H12.5429V9.17325C12.5429 9.0488 12.5829 8.94658 12.6629 8.86658C12.7474 8.78658 12.854 8.74658 12.9829 8.74658C13.1074 8.74658 13.2096 8.78658 13.2896 8.86658C13.3696 8.94658 13.4096 9.0488 13.4096 9.17325V10.1666H14.3429Z" fill="#FBF9FA"/>
</svg>

<svg width="20" height="20" fill="none" xmlns="http://www.w3.org/2000/svg"><path d="M7.17 4.334a.57.57 0 01.324.103.735.735 0 01.246.273.763.763 0 01.094.374.775.775 0 01-.094.373.763.763 0 01-.246.277.582.582 0 01-.324.1h-.58v.63c0 .06-.017.108-.053.146a.183.183 0 01-.14.057.18.18 0 01-.137-.057.213.213 0 01-.053-.146V4.537a.2.2 0 01.203-.203h.76zm0 1.12a.185.185 0 00.124-.054.425.425 0 000-.63.185.185 0 00-.124-.053h-.58v.737h.58zM9.109 4.85c.066 0 .122.02.166.057.047.038.07.082.07.133 0 .07-.017.121-.053.157a.179.179 0 01-.127.05.333.333 0 01-.113-.023 1.18 1.18 0 00-.046-.014.296.296 0 00-.24.043.399.399 0 00-.134.164.6.6 0 00-.05.257v.79a.206.206 0 01-.057.146.194.194 0 01-.143.057.194.194 0 01-.143-.057.206.206 0 01-.057-.146V5.087c0-.058.02-.106.057-.143a.189.189 0 01.143-.06c.058 0 .106.02.143.06a.194.194 0 01.057.143v.043a.495.495 0 01.22-.206.664.664 0 01.307-.074zM11.266 5.777c0 .178-.04.338-.12.48a.848.848 0 01-.33.327.913.913 0 01-.457.116.92.92 0 01-.46-.116.854.854 0 01-.326-.327.962.962 0 01-.12-.48c0-.178.04-.337.12-.477a.848.848 0 01.326-.33.9.9 0 01.46-.12c.167 0 .32.04.457.12.14.078.25.188.33.33.08.14.12.3.12.477zm-.4 0a.59.59 0 00-.07-.29.485.485 0 00-.437-.27.49.49 0 00-.256.07.516.516 0 00-.184.2.613.613 0 00-.066.29c0 .109.022.205.066.29a.49.49 0 00.44.267.49.49 0 00.437-.267.59.59 0 00.07-.29zM12.457 4.554c-.076 0-.13.022-.16.066a.23.23 0 00-.047.14v.157h.303a.18.18 0 01.134.053.17.17 0 01.053.13.18.18 0 01-.053.134.187.187 0 01-.133.05h-.304v1.18a.206.206 0 01-.056.146.194.194 0 01-.144.057.194.194 0 01-.143-.057.206.206 0 01-.057-.146v-1.18h-.18a.187.187 0 01-.133-.05.18.18 0 01-.054-.134.17.17 0 01.054-.13.18.18 0 01.133-.053h.18v-.153c0-.167.057-.303.17-.407.116-.105.281-.157.497-.157.082 0 .153.017.213.05a.163.163 0 01.093.154.183.183 0 01-.046.13.15.15 0 01-.113.05.225.225 0 01-.037-.004 1.1 1.1 0 00-.037-.006.569.569 0 00-.133-.02zm.91 1.91a.206.206 0 01-.057.146.194.194 0 01-.143.057.194.194 0 01-.143-.057.206.206 0 01-.057-.146V5.087c0-.058.019-.106.056-.143a.188.188 0 01.144-.06c.058 0 .105.02.143.06a.194.194 0 01.057.143v1.377zm-.204-1.797c-.075 0-.128-.012-.16-.037-.03-.024-.046-.068-.046-.13v-.063c0-.062.016-.106.05-.13.033-.025.087-.037.16-.037.078 0 .132.012.163.037.031.024.047.068.047.13V4.5c0 .065-.017.11-.05.134-.031.022-.086.033-.163.033zM14.211 6.464a.2.2 0 01-.203.203.19.19 0 01-.14-.057.206.206 0 01-.057-.146v-2.06a.2.2 0 01.203-.203c.056 0 .103.02.14.06a.194.194 0 01.057.143v2.06z" fill="#FBF9FA"/><path fill-rule="evenodd" clip-rule="evenodd" d="M10 18.75a8.75 8.75 0 100-17.5 8.75 8.75 0 000 17.5zM10 20c5.523 0 10-4.477 10-10S15.523 0 10 0 0 4.477 0 10s4.477 10 10 10z" fill="#FBF9FA"/><path d="M11.074 12.792a.475.475 0 01.49.49.464.464 0 01-.14.341.492.492 0 01-.35.132h-.367v1.128a.524.524 0 01-.534.534.5.5 0 01-.368-.149.54.54 0 01-.148-.385v-1.128H7.382a.529.529 0 01-.36-.15.491.491 0 01-.165-.367c0-.128.043-.245.13-.35l2.766-3.386a.53.53 0 01.437-.21c.146 0 .269.052.368.157.099.1.149.225.149.377v2.966h.367zm-1.417 0v-1.75l-1.418 1.75h1.418zM14.343 10.167c.107 0 .196.035.267.106a.34.34 0 01.106.26.362.362 0 01-.106.267.375.375 0 01-.267.1h-.933v.873a.404.404 0 01-.127.307.415.415 0 01-.307.12.438.438 0 01-.313-.12.415.415 0 01-.12-.307V10.9h-.913a.362.362 0 01-.373-.373.34.34 0 01.106-.26c.071-.067.16-.1.267-.1h.913v-.994c0-.124.04-.226.12-.306a.447.447 0 01.32-.12c.124 0 .227.04.307.12.08.08.12.182.12.306v.994h.933z" fill="#FBF9FA"/></svg>
